X: 22148
T: Kylebrack Rambler, The
R: reel
M: 4/4
K: Dmixolydian
|:DA, (3A,^G,A, DA,=FA,|DA, (3A,^G,A, CA,=G,A,|DA, (3A,^G,A, DA,DA|FDAF GEFG|
Adde d^cAB|cGAc GECE|CB,A,G, A,D (3D^CD|1 FAGE D3^C:|2 FAGE DEFG||
|:AFGA FD (3D^CD|dedc AGdB|{e}c2 (3GBc EGce|dced cAGE|
(3d^cd fA (3d^cd fd|^cA (3A^GA EA^CA|GE (3E^DE C=DEG|cAGE DEFG:|
|:AD (3D^CD A,D (3D^CD|dA (3A^GA dcA_B|BcdB cAGE|CcBd cGEG|
FD (3D^CD A,D (3D^CD|dA (3A^GA dcA_B|BcdB cAGE|1 CEGE DEFG:|2 CEGE D3^C||

